src/topics/icons/void.svg

<svg height="211" preserveAspectRatio="xMidYMid" viewBox="0 0 256 211" width="256" xmlns="http://www.w3.org/2000/svg"><path d="m128.016818 0c-22.031879.04678314-43.4934462 7.00726851-61.3590608 19.9001677l23.9026848 23.9026848c11.277449-6.8985948 24.236289-10.5597341 37.456376-10.5822149 39.772415-.0000786 72.01434 32.2418466 72.014262 72.0142614-.031827 13.215381-3.69956 26.167196-10.601511 37.437081l23.947987 23.947986c12.888803-17.875944 19.840407-39.347145 19.874174-61.385067 0-58.1196251-47.115287-105.234899-105.234913-105.234899z" fill="#abc2ab"/><path d="m189.375878 190.569631-23.902684-23.902685c-11.277449 6.898595-24.236289 10.559748-37.456376 10.582215-39.7724153.000079-72.0143405-32.241847-72.0142619-72.014262.0318269-13.2153807 3.6995467-26.1671952 10.6015103-37.4370802l-23.9479998-23.9479864c-12.8888161 17.875937-19.840381 39.347145-19.8741481 61.3850666 0 58.119626 47.1152739 105.2349 105.2348995 105.2349 22.031879-.046797 43.493446-7.007262 61.35906-19.900168z" fill="#478061"/><circle cx="128" cy="105.234899" fill="#abc2ab" r="33.503356"/><path d="m30.591915 124.810389c-1.1475636.819684-2.1926645 1.229526-3.1353029 1.229526h-4.0574535c-.573782 0-1.0246087-.102459-1.3524803-.307375-.3278715-.204925-.5942699-.512309-.799195-.922151l-20.77906086-38.6072509c-.08197011-.0819701-.12295516-.1844283-.12295516-.3073748v-.3688655c0-.4098417.14344762-.7377177.43034287-.983628.32787157-.2868867.84017582-.43033 1.53691275-.43033h25.2668439c1.3524801 0 2.233641.4098417 2.6434826 1.2295251l12.7871227 24.6520811 35.8407874-24.6520811c1.1885487-.8196834 2.4385749-1.2295251 3.7500787-1.2295251h3.9959628c.5328056 0 .7992084.2254133.7992084.6762399 0 .3688565-.3278716.8196832-.9836147 1.3524802z"/><path d="m86.3530304 126.039915c-2.1311871 0-4.0164638-.327876-5.6558303-.983629-1.6393842-.696728-3.0123656-1.639366-4.1189442-2.827915-1.1065786-1.188548-1.9467544-2.582014-2.5205275-4.180395-.573773-1.639375-.8606595-3.401706-.8606595-5.286992 0-2.418073.4098417-4.795162 1.229525-7.131265.8196834-2.336112 1.9467545-4.569762 3.3812132-6.7009493 1.4754265-2.1311871 3.1967632-4.098434 5.1640101-5.9017407 2.0082321-1.8033155 4.1804043-3.3607207 6.5165165-4.6722156 2.3770975-1.3114951 4.8771412-2.3361036 7.5001313-3.0738255 2.6230075-.7786981 5.307484-1.1680472 8.053429-1.1680472h30.12348c2.172172 0 4.07795.3278715 5.717334.9836147 1.680352.655752 3.073817 1.5779022 4.180396 2.7664507 1.106578 1.1475549 1.946754 2.5205274 2.520527 4.1189176.573791 1.5983904.860686 3.340224.860686 5.2255007 0 2.4180824-.430334 4.8156676-1.291003 7.1927566-.8197 2.336112-1.967264 4.569757-3.442691 6.700936-1.475444 2.131187-3.217282 4.11893-5.225513 5.963231-2.008232 1.803307-4.200897 3.3812-6.577994 4.73368-2.37708 1.311504-4.877124 2.356609-7.500131 3.135316-2.62299.737713-5.266482 1.10657-7.930475 1.10657h-30.1234791zm37.0088616-25.143903c1.352489-2.8688999 2.028733-5.0205752 2.028733-6.4550254 0-1.1885487-.430343-2.0082364-1.291029-2.4590629-.819683-.4508266-2.049208-.6762399-3.688574-.6762399h-8.360817c-1.188531 0-2.29511.1639357-3.319736.4918073-.983624.2868953-1.90577.7991995-2.766438 1.5369128-.860668.7377218-1.700844 1.7213497-2.520527 2.9508836-.778698 1.2295251-1.577889 2.7664334-2.397573 4.6107245l-2.9508962 6.70095c-1.5573966 3.483667-2.3360949 6.106665-2.3360949 7.868996 0 1.18854.348364 2.049208 1.0450921 2.582005.6967458.491811 1.7008619.737717 3.0123481.737717h8.4222939c1.270519 0 2.438575-.184428 3.504169-.553284 1.065593-.409842 2.090202-1.045102 3.073825-1.905779.983624-.860668 1.926262-2.008227 2.827916-3.442677.901653-1.434451 1.823799-3.196777 2.766437-5.286978z"/><path d="m144.122693 126.039915c-.737713 0-1.10657-.245906-1.10657-.737718 0-.245902.061478-.553285.184433-.92215l17.274879-38.6687162c.491821-1.0655934 1.270528-1.5983901 2.336122-1.5983901h21.147913c.778698 0 1.168047.266394 1.168047.7991821 0 .2459104-.081962.5123132-.245884.7992084l-17.213428 38.6687158c-.491821 1.106579-1.270528 1.659868-2.336121 1.659868z"/><path d="m174.348967 126.039915c-.737713 0-1.10657-.245906-1.10657-.737718 0-.245902.061478-.553285.184433-.92215l17.274879-38.6687162c.491821-1.0655934 1.270528-1.5983901 2.336121-1.5983901h49.427119c2.131187 0 4.016464.3278715 5.65583.9836147 1.639367.655752 3.012339 1.5779022 4.118918 2.7664507 1.106578 1.1475549 1.946763 2.5205274 2.520553 4.1189176.573773 1.5983904.86066 3.340224.86066 5.2255007 0 2.5000525-.430334 4.9591156-1.291002 7.3771886-.860669 2.377089-2.049217 4.631227-3.565647 6.762414-1.475426 2.131187-3.237748 4.098434-5.286965 5.901741-2.008232 1.803315-4.200897 3.36072-6.577994 4.672215-2.336112 1.270519-4.795171 2.274635-7.377176 3.012348-2.582022.737722-5.164036 1.106583-7.746041 1.106583h-49.427118zm53.484559-25.143903c1.311503-2.95087 1.967255-5.1025453 1.967255-6.4550254 0-1.1885487-.409841-2.0082364-1.229525-2.4590629-.819683-.4508266-2.008232-.6762399-3.565646-.6762399h-12.479734l-12.172347 27.4799972h12.418257c1.229534 0 2.377097-.184428 3.442691-.553285 1.065593-.409842 2.069709-1.045101 3.012348-1.905778.983624-.901654 1.926262-2.049213 2.827915-3.442678.942639-1.43445 1.885277-3.196776 2.827915-5.286978l2.950871-6.700949z"/></svg>

<?xml version="1.0" encoding="UTF-8" standalone="no"?>
<svg width="256px" height="211px" viewBox="0 0 256 211" version="1.1" xmlns="http://www.w3.org/2000/svg" xmlns:xlink="http://www.w3.org/1999/xlink" preserveAspectRatio="xMidYMid">
	<g>
		<path d="M128.016818,0 C105.984939,0.0467831409 84.5233718,7.00726851 66.6577572,19.9001677 L90.560442,43.8028525 C101.837891,36.9042577 114.796731,33.2431184 128.016818,33.2206376 C167.789233,33.220559 200.031158,65.4624842 200.03108,105.234899 C199.999253,118.45028 196.33152,131.402095 189.429569,142.67198 L213.377556,166.619966 C226.266359,148.744022 233.217963,127.272821 233.25173,105.234899 C233.25173,47.1152739 186.136443,0 128.016817,0 L128.016818,0 Z" fill="#ABC2AB"></path>
		<path d="M189.375878,190.569631 L165.473194,166.666946 C154.195745,173.565541 141.236905,177.226694 128.016818,177.249161 C88.2444027,177.24924 56.0024775,145.007314 56.0025561,105.234899 C56.034383,92.0195183 59.7021028,79.0677038 66.6040664,67.7978188 L42.6560666,43.8498324 C29.7672505,61.7257694 22.8156856,83.1969774 22.7819185,105.234899 C22.7819185,163.354525 69.8971924,210.469799 128.016818,210.469799 C150.048697,210.423002 171.510264,203.462537 189.375878,190.569631 L189.375878,190.569631 Z" fill="#478061"></path>
		<circle fill="#ABC2AB" cx="128" cy="105.234899" r="33.5033557"></circle>
		<path d="M30.591915,124.810389 C29.4443514,125.630073 28.3992505,126.039915 27.4566121,126.039915 L23.3991586,126.039915 C22.8253766,126.039915 22.3745499,125.937456 22.0466783,125.73254 C21.7188068,125.527615 21.4524084,125.220231 21.2474833,124.810389 L0.468422443,86.2031381 C0.386452331,86.121168 0.345467275,86.0187098 0.345467275,85.8957633 L0.345467275,85.5268978 C0.345467275,85.1170561 0.488914899,84.7891801 0.775810148,84.5432698 C1.10368172,84.2563831 1.61598597,84.1129398 2.3127229,84.1129398 L27.5795668,84.1129398 C28.9320469,84.1129398 29.8132078,84.5227815 30.2230494,85.3424649 L43.0101721,109.994546 L78.8509595,85.3424649 C80.0395082,84.5227815 81.2895344,84.1129398 82.6010382,84.1129398 L86.597001,84.1129398 C87.1298066,84.1129398 87.3962094,84.3383531 87.3962094,84.7891797 C87.3962094,85.1580362 87.0683378,85.6088629 86.4125947,86.1416599 L30.591915,124.810389 L30.591915,124.810389 Z" fill="#000000"></path>
		<path d="M86.3530304,126.039915 C84.2218433,126.039915 82.3365666,125.712039 80.6972001,125.056286 C79.0578159,124.359558 77.6848345,123.41692 76.5782559,122.228371 C75.4716773,121.039823 74.6315015,119.646357 74.0577284,118.047976 C73.4839554,116.408601 73.1970689,114.64627 73.1970689,112.760984 C73.1970689,110.342911 73.6069106,107.965822 74.4265939,105.629719 C75.2462773,103.293607 76.3733484,101.059957 77.8078071,98.9287697 C79.2832336,96.7975826 81.0045703,94.8303357 82.9718172,93.027029 C84.9800493,91.2237135 87.1522215,89.6663083 89.4883337,88.3548134 C91.8654312,87.0433183 94.3654749,86.0187098 96.988465,85.2809879 C99.6114725,84.5022898 102.295949,84.1129407 105.041894,84.1129407 L135.165374,84.1129407 C137.337546,84.1129407 139.243324,84.4408122 140.882708,85.0965554 C142.56306,85.7523074 143.956525,86.6744576 145.063104,87.8630061 C146.169682,89.010561 147.009858,90.3835335 147.583631,91.9819237 C148.157422,93.5803141 148.444317,95.3221477 148.444317,97.2074244 C148.444317,99.6255068 148.013983,102.023092 147.153314,104.400181 C146.333614,106.736293 145.18605,108.969938 143.710623,111.101117 C142.235179,113.232304 140.493341,115.220047 138.48511,117.064348 C136.476878,118.867655 134.284213,120.445548 131.907116,121.798028 C129.530036,123.109532 127.029992,124.154637 124.406985,124.933344 C121.783995,125.671057 119.140503,126.039914 116.47651,126.039914 L86.3530309,126.039914 L86.3530304,126.039915 Z M123.361892,100.896012 C124.714381,98.0271121 125.390625,95.8754368 125.390625,94.4409866 C125.390625,93.2524379 124.960282,92.4327502 124.099596,91.9819237 C123.279913,91.5310971 122.050388,91.3056838 120.411022,91.3056838 L112.050205,91.3056838 C110.861674,91.3056838 109.755095,91.4696195 108.730469,91.7974911 C107.746845,92.0843864 106.824699,92.5966906 105.964031,93.3344039 C105.103363,94.0721257 104.263187,95.0557536 103.443504,96.2852875 C102.664806,97.5148126 101.865615,99.0517209 101.045931,100.896012 L98.0950348,107.596962 C96.5376382,111.080629 95.7589399,113.703627 95.7589399,115.465958 C95.7589399,116.654498 96.1073039,117.515166 96.804032,118.047963 C97.5007778,118.539774 98.5048939,118.78568 99.8163801,118.78568 L108.238674,118.78568 C109.509193,118.78568 110.677249,118.601252 111.742843,118.232396 C112.808436,117.822554 113.833045,117.187294 114.816668,116.326617 C115.800292,115.465949 116.74293,114.31839 117.644584,112.88394 C118.546237,111.449489 119.468383,109.687163 120.411021,107.596962 L123.361892,100.896012 L123.361892,100.896012 Z" fill="#000000"></path>
		<path d="M144.122693,126.039915 C143.38498,126.039915 143.016123,125.794009 143.016123,125.302197 C143.016123,125.056295 143.077601,124.748912 143.200556,124.380047 L160.475435,85.7113308 C160.967256,84.6457374 161.745963,84.1129407 162.811557,84.1129407 L183.95947,84.1129407 C184.738168,84.1129407 185.127517,84.3793347 185.127517,84.9121228 C185.127517,85.1580332 185.045555,85.424436 184.881633,85.7113312 L167.668205,124.380047 C167.176384,125.486626 166.397677,126.039915 165.332084,126.039915 L144.122693,126.039915 L144.122693,126.039915 Z" fill="#000000"></path>
		<path d="M174.348967,126.039915 C173.611254,126.039915 173.242397,125.794009 173.242397,125.302197 C173.242397,125.056295 173.303875,124.748912 173.42683,124.380047 L190.701709,85.7113308 C191.19353,84.6457374 191.972237,84.1129407 193.03783,84.1129407 L242.464949,84.1129407 C244.596136,84.1129407 246.481413,84.4408122 248.120779,85.0965554 C249.760146,85.7523074 251.133118,86.6744576 252.239697,87.8630061 C253.346275,89.010561 254.18646,90.3835335 254.76025,91.9819237 C255.334023,93.5803141 255.62091,95.3221477 255.62091,97.2074244 C255.62091,99.7074769 255.190576,102.16654 254.329908,104.584613 C253.469239,106.961702 252.280691,109.21584 250.764261,111.347027 C249.288835,113.478214 247.526513,115.445461 245.477296,117.248768 C243.469064,119.052083 241.276399,120.609488 238.899302,121.920983 C236.56319,123.191502 234.104131,124.195618 231.522126,124.933331 C228.940104,125.671053 226.35809,126.039914 223.776085,126.039914 L174.348967,126.039914 L174.348967,126.039915 Z M227.833526,100.896012 C229.145029,97.945142 229.800781,95.7934667 229.800781,94.4409866 C229.800781,93.2524379 229.39094,92.4327502 228.571256,91.9819237 C227.751573,91.5310971 226.563024,91.3056838 225.00561,91.3056838 L212.525876,91.3056838 L200.353529,118.785681 L212.771786,118.785681 C214.00132,118.785681 215.148883,118.601253 216.214477,118.232396 C217.28007,117.822554 218.284186,117.187295 219.226825,116.326618 C220.210449,115.424964 221.153087,114.277405 222.05474,112.88394 C222.997379,111.44949 223.940017,109.687164 224.882655,107.596962 L227.833526,100.896013 L227.833526,100.896012 Z" fill="#000000"></path>
	</g>
</svg>
